dist/img/logo.svg

<svg width="173" height="32" viewBox="0 0 173 32" fill="none" xmlns="http://www.w3.org/2000/svg">
<path d="M2.47001 22.2698C1.71001 22.2698 1.13001 22.0598 0.730005 21.6398C0.330005 21.2198 0.130005 20.6298 0.130005 19.8698V2.97984C0.130005 1.37983 0.910005 0.579834 2.47001 0.579834C4.01001 0.579834 4.78 1.37983 4.78 2.97984V19.8698C4.78 21.4698 4.01001 22.2698 2.47001 22.2698Z" fill="#FCB500"/>
<path d="M10.9263 22.2698C9.40626 22.2698 8.64625 21.4998 8.64625 19.9598V9.30984C8.64625 7.78984 9.38625 7.02984 10.8663 7.02984C12.3463 7.02984 13.0863 7.78984 13.0863 9.30984V9.42983C13.5863 8.62983 14.2563 8.01983 15.0963 7.59983C15.9363 7.17983 16.8763 6.96983 17.9163 6.96983C19.6563 6.96983 20.9563 7.47983 21.8163 8.49983C22.6763 9.49983 23.1063 11.0498 23.1063 13.1498V19.9598C23.1063 21.4998 22.3463 22.2698 20.8263 22.2698C20.1063 22.2698 19.5463 22.0698 19.1463 21.6698C18.7663 21.2698 18.5763 20.6998 18.5763 19.9598V13.3598C18.5763 12.3398 18.3863 11.6098 18.0063 11.1698C17.6263 10.7098 17.0663 10.4798 16.3263 10.4798C15.3663 10.4798 14.5963 10.7798 14.0163 11.3798C13.4563 11.9798 13.1763 12.7798 13.1763 13.7798V19.9598C13.1763 21.4998 12.4263 22.2698 10.9263 22.2698Z" fill="#FCB500"/>
<path d="M32.2181 22.3298C30.9381 22.3298 29.8081 22.0198 28.8281 21.3998C27.8681 20.7598 27.1181 19.8698 26.5781 18.7298C26.0381 17.5698 25.7681 16.1998 25.7681 14.6198C25.7681 13.0398 26.0381 11.6798 26.5781 10.5398C27.1181 9.39984 27.8681 8.51984 28.8281 7.89984C29.8081 7.27983 30.9381 6.96983 32.2181 6.96983C33.1981 6.96983 34.0981 7.17983 34.9181 7.59983C35.7381 8.01983 36.358 8.57983 36.778 9.27983V2.88983C36.778 1.34983 37.528 0.579834 39.028 0.579834C40.5481 0.579834 41.3081 1.34983 41.3081 2.88983V19.9598C41.3081 21.4998 40.5581 22.2698 39.0581 22.2698C37.5581 22.2698 36.8081 21.4998 36.8081 19.9598V19.8698C36.4081 20.6298 35.7881 21.2298 34.9481 21.6698C34.1281 22.1098 33.2181 22.3298 32.2181 22.3298ZM33.5681 18.9398C34.5281 18.9398 35.3081 18.5898 35.9081 17.8898C36.5281 17.1898 36.8381 16.0998 36.8381 14.6198C36.8381 13.1598 36.5281 12.0898 35.9081 11.4098C35.3081 10.7098 34.5281 10.3598 33.5681 10.3598C32.6081 10.3598 31.8281 10.7098 31.2281 11.4098C30.6281 12.0898 30.3281 13.1598 30.3281 14.6198C30.3281 16.0998 30.6281 17.1898 31.2281 17.8898C31.8281 18.5898 32.6081 18.9398 33.5681 18.9398Z" fill="#FCB500"/>
<path d="M51.8786 22.3298C50.2986 22.3298 48.9186 22.0198 47.7386 21.3998C46.5786 20.7598 45.6786 19.8698 45.0386 18.7298C44.3986 17.5698 44.0786 16.1998 44.0786 14.6198C44.0786 13.0598 44.3986 11.7098 45.0386 10.5698C45.6786 9.40984 46.5786 8.51984 47.7386 7.89984C48.9186 7.27983 50.2986 6.96983 51.8786 6.96983C53.4586 6.96983 54.8286 7.27983 55.9886 7.89984C57.1686 8.51984 58.0786 9.40984 58.7186 10.5698C59.3786 11.7098 59.7086 13.0598 59.7086 14.6198C59.7086 16.1998 59.3786 17.5698 58.7186 18.7298C58.0786 19.8698 57.1686 20.7598 55.9886 21.3998C54.8286 22.0198 53.4586 22.3298 51.8786 22.3298ZM51.8786 18.9398C52.8386 18.9398 53.6186 18.5898 54.2186 17.8898C54.8386 17.1898 55.1486 16.0998 55.1486 14.6198C55.1486 13.1598 54.8386 12.0898 54.2186 11.4098C53.6186 10.7098 52.8386 10.3598 51.8786 10.3598C50.9186 10.3598 50.1386 10.7098 49.5386 11.4098C48.9386 12.0898 48.6386 13.1598 48.6386 14.6198C48.6386 16.0998 48.9386 17.1898 49.5386 17.8898C50.1386 18.5898 50.9186 18.9398 51.8786 18.9398Z" fill="#FCB500"/>
<path d="M78.6135 22.2698C77.8535 22.2698 77.2735 22.0598 76.8735 21.6398C76.4735 21.2198 76.2735 20.6298 76.2735 19.8698V4.68984H70.9635C69.6635 4.68984 69.0135 4.04983 69.0135 2.76983C69.0135 1.48983 69.6635 0.849834 70.9635 0.849834H86.2335C87.5335 0.849834 88.1835 1.48983 88.1835 2.76983C88.1835 4.04983 87.5335 4.68984 86.2335 4.68984H80.9235V19.8698C80.9235 20.6298 80.7235 21.2198 80.3235 21.6398C79.9435 22.0598 79.3735 22.2698 78.6135 22.2698Z" fill="#FCB500"/>
<path d="M89.7656 22.2698C88.2056 22.2698 87.4256 21.4998 87.4256 19.9598V9.30984C87.4256 7.78984 88.1656 7.02984 89.6456 7.02984C91.1256 7.02984 91.8656 7.78984 91.8656 9.30984V9.84983C92.5856 8.06983 94.0756 7.10983 96.3356 6.96983C96.8356 6.92983 97.2156 7.05983 97.4756 7.35983C97.7556 7.63983 97.9056 8.10983 97.9256 8.76983C97.9656 9.38983 97.8356 9.87984 97.5356 10.2398C97.2556 10.5998 96.7756 10.8198 96.0956 10.8998L95.4056 10.9598C93.1656 11.1798 92.0456 12.3198 92.0456 14.3798V19.9598C92.0456 21.4998 91.2856 22.2698 89.7656 22.2698Z" fill="#FCB500"/>
<path d="M104.622 22.3298C103.522 22.3298 102.552 22.1198 101.712 21.6998C100.872 21.2798 100.202 20.7098 99.7024 19.9898C99.2224 19.2698 98.9824 18.4598 98.9824 17.5598C98.9824 16.4998 99.2623 15.6498 99.8223 15.0098C100.382 14.3698 101.292 13.9198 102.552 13.6598C103.812 13.3798 105.482 13.2398 107.562 13.2398H108.642V12.7298C108.642 11.8498 108.442 11.2298 108.042 10.8698C107.642 10.4898 106.962 10.2998 106.002 10.2998C105.462 10.2998 104.872 10.3698 104.232 10.5098C103.592 10.6298 102.902 10.8398 102.162 11.1398C101.602 11.3798 101.132 11.3998 100.752 11.1998C100.372 10.9798 100.122 10.6598 100.002 10.2398C99.8823 9.79984 99.9124 9.35983 100.092 8.91983C100.292 8.47983 100.672 8.15983 101.232 7.95983C102.172 7.59983 103.052 7.34983 103.872 7.20983C104.712 7.04983 105.482 6.96983 106.182 6.96983C108.462 6.96983 110.162 7.48983 111.282 8.52983C112.402 9.54983 112.962 11.1398 112.962 13.2998V19.9598C112.962 21.4998 112.262 22.2698 110.862 22.2698C109.442 22.2698 108.732 21.4998 108.732 19.9598V19.7798C108.432 20.5598 107.922 21.1798 107.202 21.6398C106.502 22.0998 105.642 22.3298 104.622 22.3298ZM105.642 19.2998C106.482 19.2998 107.192 19.0098 107.772 18.4298C108.352 17.8498 108.642 17.0998 108.642 16.1798V15.5798H107.592C106.052 15.5798 104.962 15.7198 104.322 15.9998C103.682 16.2598 103.362 16.7198 103.362 17.3798C103.362 17.9398 103.552 18.3998 103.932 18.7598C104.332 19.1198 104.902 19.2998 105.642 19.2998Z" fill="#FCB500"/>
<path d="M122.435 22.2698C121.255 22.2698 120.395 21.6498 119.855 20.4098L115.325 9.96984C114.985 9.18984 114.975 8.50983 115.295 7.92983C115.615 7.32983 116.275 7.02984 117.275 7.02984C117.815 7.02984 118.255 7.15983 118.595 7.41983C118.935 7.65983 119.235 8.12984 119.495 8.82984L122.585 16.6298L125.765 8.79984C126.045 8.11984 126.355 7.65983 126.695 7.41983C127.035 7.15983 127.505 7.02984 128.105 7.02984C128.865 7.02984 129.405 7.32983 129.725 7.92983C130.045 8.50983 130.025 9.17984 129.665 9.93984L125.045 20.4098C124.525 21.6498 123.655 22.2698 122.435 22.2698Z" fill="#FCB500"/>
<path d="M139.519 22.3298C137.779 22.3298 136.279 22.0198 135.019 21.3998C133.779 20.7598 132.819 19.8698 132.139 18.7298C131.479 17.5698 131.149 16.2098 131.149 14.6498C131.149 13.1298 131.469 11.7998 132.109 10.6598C132.769 9.49984 133.659 8.59983 134.779 7.95983C135.919 7.29983 137.229 6.96983 138.709 6.96983C140.849 6.96983 142.549 7.64983 143.809 9.00983C145.069 10.3498 145.699 12.1698 145.699 14.4698C145.699 15.2298 145.229 15.6098 144.289 15.6098H135.469C135.629 16.7698 136.049 17.6198 136.729 18.1598C137.429 18.6798 138.389 18.9398 139.609 18.9398C140.089 18.9398 140.629 18.8898 141.229 18.7898C141.849 18.6698 142.439 18.4698 142.999 18.1898C143.579 17.9098 144.069 17.8598 144.469 18.0398C144.869 18.1998 145.139 18.4798 145.279 18.8798C145.439 19.2798 145.439 19.6998 145.279 20.1398C145.139 20.5598 144.809 20.9098 144.289 21.1898C143.589 21.5698 142.809 21.8498 141.949 22.0298C141.109 22.2298 140.299 22.3298 139.519 22.3298ZM138.889 9.96984C137.929 9.96984 137.149 10.2598 136.549 10.8398C135.969 11.4198 135.609 12.2298 135.469 13.2698H141.949C141.829 11.0698 140.809 9.96984 138.889 9.96984Z" fill="#FCB500"/>
<path d="M153.644 22.3298C150.104 22.3298 148.334 20.3598 148.334 16.4198V2.88983C148.334 1.34983 149.094 0.579834 150.614 0.579834C152.114 0.579834 152.864 1.34983 152.864 2.88983V16.2398C152.864 17.0598 153.034 17.6698 153.374 18.0698C153.734 18.4498 154.204 18.6398 154.784 18.6398C154.944 18.6398 155.094 18.6298 155.234 18.6098C155.394 18.5898 155.544 18.5798 155.684 18.5798C156.004 18.5598 156.224 18.6598 156.344 18.8798C156.484 19.0998 156.554 19.5498 156.554 20.2298C156.554 21.3898 156.064 22.0498 155.084 22.2098C154.884 22.2298 154.654 22.2498 154.394 22.2698C154.134 22.3098 153.884 22.3298 153.644 22.3298Z" fill="#FCB500"/>
<path d="M56 30.4998C56 29.6714 56.6716 28.9998 57.5 28.9998H171.5C172.328 28.9998 173 29.6714 173 30.4998C173 31.3283 172.328 31.9998 171.5 31.9998H57.5C56.6716 31.9998 56 31.3283 56 30.4998Z" fill="#FCB500"/>
</svg>

<svg width="173" height="32" fill="none" xmlns="http://www.w3.org/2000/svg"><path d="M2.47 22.27c-.76 0-1.34-.21-1.74-.63-.4-.42-.6-1.01-.6-1.77V2.98c0-1.6.78-2.4 2.34-2.4 1.54 0 2.31.8 2.31 2.4v16.89c0 1.6-.77 2.4-2.31 2.4zM10.926 22.27c-1.52 0-2.28-.77-2.28-2.31V9.31c0-1.52.74-2.28 2.22-2.28 1.48 0 2.22.76 2.22 2.28v.12c.5-.8 1.17-1.41 2.01-1.83.84-.42 1.78-.63 2.82-.63 1.74 0 3.04.51 3.9 1.53.86 1 1.29 2.55 1.29 4.65v6.81c0 1.54-.76 2.31-2.28 2.31-.72 0-1.28-.2-1.68-.6-.38-.4-.57-.97-.57-1.71v-6.6c0-1.02-.19-1.75-.57-2.19-.38-.46-.94-.69-1.68-.69-.96 0-1.73.3-2.31.9-.56.6-.84 1.4-.84 2.4v6.18c0 1.54-.75 2.31-2.25 2.31zM32.218 22.33c-1.28 0-2.41-.31-3.39-.93-.96-.64-1.71-1.53-2.25-2.67-.54-1.16-.81-2.53-.81-4.11 0-1.58.27-2.94.81-4.08.54-1.14 1.29-2.02 2.25-2.64.98-.62 2.11-.93 3.39-.93.98 0 1.88.21 2.7.63.82.42 1.44.98 1.86 1.68V2.89c0-1.54.75-2.31 2.25-2.31 1.52 0 2.28.77 2.28 2.31v17.07c0 1.54-.75 2.31-2.25 2.31s-2.25-.77-2.25-2.31v-.09c-.4.76-1.02 1.36-1.86 1.8-.82.44-1.73.66-2.73.66zm1.35-3.39c.96 0 1.74-.35 2.34-1.05.62-.7.93-1.79.93-3.27 0-1.46-.31-2.53-.93-3.21-.6-.7-1.38-1.05-2.34-1.05s-1.74.35-2.34 1.05c-.6.68-.9 1.75-.9 3.21 0 1.48.3 2.57.9 3.27.6.7 1.38 1.05 2.34 1.05zM51.879 22.33c-1.58 0-2.96-.31-4.14-.93a6.8 6.8 0 01-2.7-2.67c-.64-1.16-.96-2.53-.96-4.11 0-1.56.32-2.91.96-4.05a6.552 6.552 0 012.7-2.67c1.18-.62 2.56-.93 4.14-.93 1.58 0 2.95.31 4.11.93 1.18.62 2.09 1.51 2.73 2.67.66 1.14.99 2.49.99 4.05 0 1.58-.33 2.95-.99 4.11-.64 1.14-1.55 2.03-2.73 2.67-1.16.62-2.53.93-4.11.93zm0-3.39c.96 0 1.74-.35 2.34-1.05.62-.7.93-1.79.93-3.27 0-1.46-.31-2.53-.93-3.21-.6-.7-1.38-1.05-2.34-1.05s-1.74.35-2.34 1.05c-.6.68-.9 1.75-.9 3.21 0 1.48.3 2.57.9 3.27.6.7 1.38 1.05 2.34 1.05zM78.614 22.27c-.76 0-1.34-.21-1.74-.63-.4-.42-.6-1.01-.6-1.77V4.69h-5.31c-1.3 0-1.95-.64-1.95-1.92 0-1.28.65-1.92 1.95-1.92h15.27c1.3 0 1.95.64 1.95 1.92 0 1.28-.65 1.92-1.95 1.92h-5.31v15.18c0 .76-.2 1.35-.6 1.77-.38.42-.95.63-1.71.63zM89.766 22.27c-1.56 0-2.34-.77-2.34-2.31V9.31c0-1.52.74-2.28 2.22-2.28 1.48 0 2.22.76 2.22 2.28v.54c.72-1.78 2.21-2.74 4.47-2.88.5-.04.88.09 1.14.39.28.28.43.75.45 1.41.04.62-.09 1.11-.39 1.47-.28.36-.76.58-1.44.66l-.69.06c-2.24.22-3.36 1.36-3.36 3.42v5.58c0 1.54-.76 2.31-2.28 2.31zM104.622 22.33c-1.1 0-2.07-.21-2.91-.63-.84-.42-1.51-.99-2.01-1.71-.48-.72-.72-1.53-.72-2.43 0-1.06.28-1.91.84-2.55.56-.64 1.47-1.09 2.73-1.35 1.26-.28 2.93-.42 5.01-.42h1.08v-.51c0-.88-.2-1.5-.6-1.86-.4-.38-1.08-.57-2.04-.57-.54 0-1.13.07-1.77.21-.64.12-1.33.33-2.07.63-.56.24-1.03.26-1.41.06a1.57 1.57 0 01-.75-.96c-.12-.44-.09-.88.09-1.32.2-.44.58-.76 1.14-.96.94-.36 1.82-.61 2.64-.75.84-.16 1.61-.24 2.31-.24 2.28 0 3.98.52 5.1 1.56 1.12 1.02 1.68 2.61 1.68 4.77v6.66c0 1.54-.7 2.31-2.1 2.31-1.42 0-2.13-.77-2.13-2.31v-.18c-.3.78-.81 1.4-1.53 1.86-.7.46-1.56.69-2.58.69zm1.02-3.03c.84 0 1.55-.29 2.13-.87.58-.58.87-1.33.87-2.25v-.6h-1.05c-1.54 0-2.63.14-3.27.42-.64.26-.96.72-.96 1.38 0 .56.19 1.02.57 1.38.4.36.97.54 1.71.54zM122.435 22.27c-1.18 0-2.04-.62-2.58-1.86l-4.53-10.44c-.34-.78-.35-1.46-.03-2.04.32-.6.98-.9 1.98-.9.54 0 .98.13 1.32.39.34.24.64.71.9 1.41l3.09 7.8 3.18-7.83c.28-.68.59-1.14.93-1.38.34-.26.81-.39 1.41-.39.76 0 1.3.3 1.62.9.32.58.3 1.25-.06 2.01l-4.62 10.47c-.52 1.24-1.39 1.86-2.61 1.86zM139.519 22.33c-1.74 0-3.24-.31-4.5-.93-1.24-.64-2.2-1.53-2.88-2.67-.66-1.16-.99-2.52-.99-4.08 0-1.52.32-2.85.96-3.99.66-1.16 1.55-2.06 2.67-2.7 1.14-.66 2.45-.99 3.93-.99 2.14 0 3.84.68 5.1 2.04 1.26 1.34 1.89 3.16 1.89 5.46 0 .76-.47 1.14-1.41 1.14h-8.82c.16 1.16.58 2.01 1.26 2.55.7.52 1.66.78 2.88.78.48 0 1.02-.05 1.62-.15.62-.12 1.21-.32 1.77-.6.58-.28 1.07-.33 1.47-.15.4.16.67.44.81.84.16.4.16.82 0 1.26-.14.42-.47.77-.99 1.05-.7.38-1.48.66-2.34.84-.84.2-1.65.3-2.43.3zm-.63-12.36c-.96 0-1.74.29-2.34.87-.58.58-.94 1.39-1.08 2.43h6.48c-.12-2.2-1.14-3.3-3.06-3.3zM153.644 22.33c-3.54 0-5.31-1.97-5.31-5.91V2.89c0-1.54.76-2.31 2.28-2.31 1.5 0 2.25.77 2.25 2.31v13.35c0 .82.17 1.43.51 1.83.36.38.83.57 1.41.57.16 0 .31-.01.45-.03.16-.02.31-.03.45-.03.32-.02.54.08.66.3.14.22.21.67.21 1.35 0 1.16-.49 1.82-1.47 1.98-.2.02-.43.04-.69.06-.26.04-.51.06-.75.06zM56 30.5a1.5 1.5 0 011.5-1.5h114a1.5 1.5 0 010 3h-114a1.5 1.5 0 01-1.5-1.5z" fill="#FCB500"/></svg>
